X:41
T:McDonald's Jigg. Ru2.041
%%VWML:RutherfordVol2-2249-p21-0
F:http://www.vwml.org/record/RutherfordVol2/2249/p21
L:1/8
R:Jigg
B:RUTHERFORD Complete Collection of 200 Country Dances Vol.2; 1759.
Z:vmp. Peter Dunk 2015
Q:3/8=100
K:F
f>ga F2F|G>AB A2G|f>ga F2F|G>AB A3:|
|:BGB AFA|BGB A2G|BGB AFA|BdB c3:|
|:fed cBA|GAB AGF|fed cBA|BGE F3:|
W:
W:Cast off one Cu: .| Cast up again :| Cross over one Cu: .|. Lead thro the 3d.
W:Cu: & cast up into the second Cu: Places :||: Lead thro the top & cast off .||.
W:Foot it and turn your Partner :|
T:Parson on Horseback. Ru2.042, The
M:C|
L:1/8
B:RUTHERFORD Complete Collection of 200 Country Dances Vol.2; 1759.
Z:vmp. Peter Dunk 2015
Q:1/4=120
K:F
g|a/g/f/e/ fc A F2 A|BGGc AFFg|aefc A F2 A|BGcA B G2:|
|:F|ECEG c G2 B|AFAc f c2 f|dBGd cAFB|AfcA F3:|
W:
W:Foot it and cast off two Cu: .| foot it and cast up again :|
W:Cross over 2 Cu: .|. lead up to the top Foot it & Cast off :|
W:Foot it corners & turn .||. Lead out sides and turn :|
